svg/octahedron_off.svg

<svg xmlns="http://www.w3.org/2000/svg" viewBox="0 0 24 24"><path d="M11 5.41V7.8l2.88 2.88L17.84 12l-1.98.66 2.95 2.95 2.9-2.9h-.01c.39-.39.39-1.03 0-1.42h.01l-9-9C12.5 2.1 12.26 2 12 2s-.5.1-.71.29l-2.9 2.9 1.42 1.42zm2 0 4.3 4.3L13 8.28zM2.39 1.73 1.11 3l4.74 4.74-3.56 3.55h.01c-.39.39-.39 1.03 0 1.42h-.01l9 9c.21.19.45.29.71.29s.5-.1.71-.29l3.55-3.56 4.58 4.58 1.27-1.27zm4.87 7.42.28.28-.84.28zM11 18.59l-4.3-4.3 4.3 1.43zm1-4.64L6.16 12l2.96-1 2.92 2.93zm1 4.64v-2.87l.62-.22 1.23 1.24z"/></svg>

<svg xmlns="http://www.w3.org/2000/svg" id="mdi-octahedron-off" viewBox="0 0 24 24"><path d="M11 5.41V7.8L13.88 10.68L17.84 12L15.86 12.66L18.81 15.61L21.71 12.71H21.7C22.09 12.32 22.09 11.68 21.7 11.29H21.71L12.71 2.29C12.5 2.1 12.26 2 12 2S11.5 2.1 11.29 2.29L8.39 5.19L9.81 6.61L11 5.41M13 5.41L17.3 9.71L13 8.28V5.41M2.39 1.73L1.11 3L5.85 7.74L2.29 11.29H2.3C1.91 11.68 1.91 12.32 2.3 12.71H2.29L11.29 21.71C11.5 21.9 11.74 22 12 22S12.5 21.9 12.71 21.71L16.26 18.15L20.84 22.73L22.11 21.46L2.39 1.73M7.26 9.15L7.54 9.43L6.7 9.71L7.26 9.15M11 18.59L6.7 14.29L11 15.72V18.59M12 13.95L6.16 12L9.12 11L12.04 13.93L12 13.95M13 18.59V15.72L13.62 15.5L14.85 16.74L13 18.59Z" /></svg>
